ix/money-recive_broken.svg

<svg viewBox="0 0 24 24" fill="none" xmlns="http://www.w3.org/2000/svg" height="1em" width="1em">
  <path d="M9.5 13.75C9.5 14.72 10.25 15.5 11.17 15.5H13.05C13.85 15.5 14.5 14.82 14.5 13.97C14.5 13.06 14.1 12.73 13.51 12.52L10.5 11.47C9.91 11.26 9.51001 10.94 9.51001 10.02C9.51001 9.17999 10.16 8.48999 10.96 8.48999H12.84C13.76 8.48999 14.51 9.26999 14.51 10.24" stroke="#292D32" stroke-width="1.5" stroke-linecap="round" stroke-linejoin="round"/>
  <path d="M12 7.5V16.5" stroke="#292D32" stroke-width="1.5" stroke-linecap="round" stroke-linejoin="round"/>
  <path d="M17 3V7H21" stroke="#292D32" stroke-width="1.5" stroke-linecap="round" stroke-linejoin="round"/>
  <path d="M22 2L17 7" stroke="#292D32" stroke-width="1.5" stroke-linecap="round" stroke-linejoin="round"/>
  <path d="M12 2C6.48 2 2 6.48 2 12C2 15.94 4.28001 19.35 7.60001 20.98" stroke="#292D32" stroke-width="1.5" stroke-linecap="round" stroke-linejoin="round"/>
  <path d="M22 12C22 17.52 17.52 22 12 22" stroke="#292D32" stroke-width="1.5" stroke-linecap="round" stroke-linejoin="round"/>
</svg>

<svg viewBox="0 0 24 24" fill="none" xmlns="http://www.w3.org/2000/svg" height="1em" width="1em">
  <path d="M9.5 13.75c0 .97.75 1.75 1.67 1.75h1.88c.8 0 1.45-.68 1.45-1.53 0-.91-.4-1.24-.99-1.45l-3.01-1.05c-.59-.21-.99-.53-.99-1.45 0-.84.65-1.53 1.45-1.53h1.88c.92 0 1.67.78 1.67 1.75M12 7.5v9M17 3v4h4m1-5-5 5" stroke="#292D32" stroke-width="1.5" stroke-linecap="round" stroke-linejoin="round"/>
  <path d="M12 2C6.48 2 2 6.48 2 12c0 3.94 2.28 7.35 5.6 8.98M22 12c0 5.52-4.48 10-10 10" stroke="#292D32" stroke-width="1.5" stroke-linecap="round" stroke-linejoin="round"/>
</svg>
